;FLAVOR:Marlin
;TIME:354
;Filament used: 0.440692m
;Layer height: 0.4
;MINX:23.897
;MINY:25.268
;MINZ:0.3
;MAXX:50.644
;MAXY:54.662
;MAXZ:22.7
;Generated with Cura_SteamEngine 4.13.1
M104 S200
M105 (inline comment) G1 F200 E3
M109 S200
M82 ;absolute extrusion mode
G28 ;Home
G1 Z15.0 F6000 ;Move the platform down 15mm
;Prime the extruder
G92 E0
G1 F200 E3
WHILE [conditional] DO3

IF [#100 EQ 0] GOTO 110
GOTO 200

IF
#123
THEN
GOTO
GOTO778
ABS
COS
ATAN
GT
LT
GE EQ

G

;From: https://gcodetutor.com/cnc-macro-programming/cnc-variables.html
#101=35.0 (DIA A);
#102=20.0 (DIA B);
#103=50.0 (BAR STOCK DIA);
X5.5
X#101
;
N1 (ROUGH TURN);
G54 G40;
T0101 M06;
G50 S2500;
G96 S280 M03;
G00 X[#103+3] Z5.0 M08;
G01 Z0.1 F0.1;
X-0.2 F0.05;
G00 X[#103+1] Z2.0;


G92 E0
G92 E0
G92 E0
G1 F1500 E-6.5
;LAYER_COUNT:57
;LAYER:0
M107
G0 F3600 X26.955 Y29.498 Z0.3
;TYPE:SKIRT
G1 F1500 E0
G1 F1800 X27.393 Y29.093 E0.02976
G1 X27.568 Y28.943 E0.04126
G1 X.568 Y28. E0.04126
G1 X.5 Y2. E0.04126
G1 X-28.193 Y28.46 E0.08067
G1 X28.863 Y-28.043 E0.12004
G1 X29.528 Y27.69 E--+----0.1576
G1 X29.739 Y27.577 E0.16954
G1 X30.453 Y27.24 E0.20893
G1 X30.977 Y27.046 E0.23681
G1 X31.177 Y26.98 E0.24732
G1 X31.938 Y26.771 E0.28669
G1 X32.572 Y26.655 E0.31884
G1 X33.564 Y26.558 E0.36857
G1 X33.834 Y26.549 E0.38205
G1 X34.472 Y26.554 E0.41388
G1 X34.678 Y26.564 E0.42417
G1 X35.238 Y26.62 E0.45225
G1 X36.001 Y26.262 E0.4943
G1 X36.439 Y26.05 E0.51857
G1 X37.341 Y25.715 E0.56658
G1 X37.536 Y25.656 E0.57674
G1 X38.233 Y25.48 E0.61261
G1 X38.502 Y25.425 E0.6263
G1 X39.282 Y25.306 E0.66567
G1 X40.167 Y25.268 E0.70986
G1 X40.471 Y25.272 E0.72503
G1 X41.259 Y25.322 E0.76442
G1 X42.31 Y25.517 E0.81775
G1 X42.593 Y25.592 E0.83236
G1 X43.289 Y25.797 E0.86856
G1 X43.929 Y26.054 E0.90297
G1 X44.427 Y26.28 E0.93025
G1 X45.188 Y26.677 E0.97307
G1 X45.39 Y26.797 E0.98479
G1 X46.047 Y27.234 E1.02416
G1 X46.657 Y27.736 E1.06357
G1 X47.214 Y28.296 E1.10298
G1 X47.71 Y28.91 E1.14236
G1 X48.111 Y29.51 E1.17836
G1 X48.503 Y30.196 E1.21778
G1 X48.896 Y31.118 E1.26778
G1 X48.944 Y31.254 E1.27498
G1 X49.236 Y32.315 E1.32988
G1 X49.341 Y32.857 E1.35742
G1 X49.377 Y33.074 E1.3684
G1 X49.466 Y33.859 E1.40781
G1 X49.476 Y34.649 E1.44723
G1 X49.372 Y35.658 E1.49783
G1 X49.286 Y36.137 E1.52211
G1 X49.687 Y37.016 E1.57032
G1 X49.981 Y37.792 E1.61172
G1 X50.058 Y38.01 E1.62325
G1 X50.274 Y38.732 E1.66085
G1 X50.448 Y39.537 E1.70194
G1 X50.442 Y39.538 E1.70224
G1 X50.589 Y40.478 E1.74971
G1 X50.617 Y40.806 E1.76613
G1 X50.644 Y41.595 E1.80552
G1 X50.612 Y42.189 E1.8352
G1 X50.551 Y42.795 E1.86558
G1 X50.519 Y43.05 E1.8784
G1 X50.427 Y43.615 E1.90696
G1 X50.378 Y43.859 E1.91938
G1 X50.194 Y44.591 E1.95703
G1 X50.037 Y45.073 E1.98233
G1 X49.963 Y45.278 E1.9932
G1 X49.702 Y45.912 E2.0274
G1 X49.4 Y46.535 E2.06195
G1 X49.151 Y47.002 E2.08835
G1 X48.797 Y47.616 E2.12371
G1 X48.456 Y48.155 E2.15553
G1 X48.114 Y48.649 E2.1855
G1 X47.682 Y49.195 E2.22024
G1 X47.489 Y49.418 E2.23495
G1 X47.017 Y49.917 E2.26922
G1 X46.619 Y50.288 E2.29637
G1 X46.1 Y50.754 E2.33117
G1 X45.807 Y51.02 E2.35091
G1 X45.41 Y51.363 E2.37708
G1 X44.773 Y51.866 E2.41758
G1 X44.111 Y52.317 E2.45754
G1 X43.963 Y52.407 E2.46618
G1 X43.487 Y52.675 E2.49343
G1 X43.264 Y52.78 E2.50573
G1 X42.763 Y53.042 E2.53394
G1 X41.948 Y53.393 E2.57821
G1 X41.107 Y53.717 E2.62317
G1 X40.693 Y53.874 E2.64526
G1 X39.801 Y54.17 E2.69215
G1 X39.38 Y54.282 E2.71389
G1 X38.675 Y54.435 E2.74988
G1 X38.255 Y54.506 E2.77113
G1 X37.619 Y54.587 E2.80311
G1 X36.895 Y54.651 E2.83938
G1 X36.195 Y54.662 E2.8743
G1 X35.849 Y54.652 E2.89157
G1 X35.061 Y54.589 E2.93101
G1 X34.544 Y54.504 E2.95715
G1 X34.279 Y54.451 E2.97063
G1 X33.514 Y54.257 E3.01001
G1 X33.183 Y54.151 E3.02735
G1 X32.517 Y53.923 E3.06247
G1 X32.235 Y53.812 E3.07759
G1 X31.59 Y53.524 E3.11283
G1 X31.381 Y53.419 E3.1245
G1 X30.434 Y52.856 E3.17946
G1 X30.054 Y52.621 E3.20175
G1 X29.389 Y52.195 E3.24115
G1 X28.836 Y51.768 E3.27601
G1 X28.245 Y51.244 E3.31542
G1 X27.629 Y50.562 E3.36127
G1 X27.568 Y50.486 E3.36613
G1 X27.106 Y49.846 E3.40551
G1 X26.577 Y48.89 E3.46002
G1 X26.479 Y48.679 E3.47162
G1 X26.183 Y47.947 E3.51102
G1 X25.925 Y47.023 E3.55888
G1 X25.875 Y46.789 E3.57082
G1 X25.749 Y46.009 E3.61024
G1 X25.703 Y45.221 E3.64962
G1 X25.716 Y44.809 E3.67018
G1 X25.685 Y44.766 E3.67283
G1 X25.272 Y44.132 E3.71058
G1 X25.087 Y43.815 E3.72889
G1 X24.587 Y42.792 E3.78569
G1 X24.501 Y42.578 E3.7972
G1 X24.244 Y41.831 E3.83661
G1 X24.045 Y40.956 E3.88138
G1 X23.999 Y40.681 E3.89529
G1 X23.908 Y39.896 E3.93472
G1 X23.897 Y39.107 E3.97408
G1 X23.966 Y38.32 E4.0135
G1 X24.101 Y37.602 E4.04995
G1 X24.152 Y37.386 E4.06102
G1 X24.372 Y36.627 E4.10045
G1 X24.41 Y36.529 E4.10569
G1 X24.383 Y36.022 E4.13102
G1 X24.38 Y35.803 E4.14195
G1 X24.409 Y35.014 E4.18134
G1 X24.518 Y34.232 E4.22073
G1 X24.705 Y33.464 E4.26016
G1 X24.969 Y32.72 E4.29955
G1 X25.227 Y32.118 E4.33223
G1 X25.557 Y31.401 E4.3716
G1 X25.958 Y30.72 E4.41103
G1 X26.425 Y30.084 E4.4504
G1 X26.955 Y29.498 E4.48982
G0 F3600 X27.309 Y29.711
G1 F1800 X27.828 Y29.247 E4.52455
G1 X28.437 Y28.777 E4.56293
G1 X29.092 Y28.373 E4.60132
G1 X29.716 Y28.043 E4.63654
G1 X29.927 Y27.93 E4.64848
G1 X30.623 Y27.602 E4.68687
G1 X31.102 Y27.426 E4.71233
G1 X31.302 Y27.36 E4.72283
G1 X32.044 Y27.157 E4.76121
G1 X32.637 Y27.05 E4.79127
G1 X33.577 Y26.958 E4.8384
G1 X33.847 Y26.949 E4.85187
G1 X34.453 Y26.954 E4.88211
G1 X34.659 Y26.964 E4.8924
G1 X35.319 Y27.03 E4.92549
G1 X35.793 Y26.782 E4.95218
G1 X36.416 Y26.498 E4.98634
G1 X36.601 Y26.416 E4.99643
G1 X37.457 Y26.098 E5.04199
G1 X37.652 Y26.039 E5.05215
G1 X38.313 Y25.872 E5.08617
G1 X38.582 Y25.817 E5.09987
G1 X39.342 Y25.702 E5.13821
G1 X40.161 Y25.668 E5.17911
G1 X40.465 Y25.672 E5.19428
G1 X41.233 Y25.722 E5.23267
G1 X42.21 Y25.904 E5.28226
G1 X42.493 Y25.979 E5.29686
G1 X43.175 Y26.181 E5.33235
G1 X43.764 Y26.418 E5.36402
G1 X44.262 Y26.644 E5.39131
G1 X44.983 Y27.021 E5.4319
G1 X45.185 Y27.141 E5.44362
G1 X45.825 Y27.568 E5.482
G1 X46.418 Y28.058 E5.52038
G1 X46.956 Y28.608 E5.55877
G1 X47.639 Y29.515 E5.61541
G1 X47.774 Y29.726 E5.62791
G1 X48.155 Y30.394 E5.66628
G1 X48.519 Y31.251 E5.71273
G1 X48.567 Y31.387 E5.71992
G1 X48.844 Y32.394 E5.77203
G1 X48.946 Y32.923 E5.79891
G1 X48.982 Y33.14 E5.80988
G1 X49.068 Y33.904 E5.84824
G1 X49.075 Y34.673 E5.88661
G1 X48.977 Y35.591 E5.93266
G1 X48.885 Y36.103 E5.95862
G1 X48.867 Y36.197 E5.96339
G1 X48.918 Y36.292 E5.96877
G1 X49.313 Y37.158 E6.01626
G1 X49.604 Y37.925 E6.05719
G1 X49.681 Y38.143 E6.06872
G1 X49.886 Y38.828 E6.10439
G1 X50.056 Y39.615 E6.14456
G1 X50.05 Y39.616 E6.14487
G1 X50.19 Y40.512 E6.19011
G1 X50.218 Y40.84 E6.20653
G1 X50.244 Y41.608 E6.24487
G1 X50.213 Y42.152 E6.27206
G1 X50.154 Y42.745 E6.30179
G1 X50.122 Y43 E6.31461
G1 X50.035 Y43.536 E6.3417
G1 X49.986 Y43.78 E6.35412
G1 X49.811 Y44.475 E6.38987
G1 X49.586 Y45.143 E6.42504
G1 X49.339 Y45.744 E6.45746
G1 X49.047 Y46.347 E6.49088
G1 X48.798 Y46.814 E6.51728
G1 X48.452 Y47.413 E6.5518
G1 X48.124 Y47.931 E6.58238
G1 X47.789 Y48.415 E6.61175
G1 X47.379 Y48.934 E6.64475
G1 X47.186 Y49.157 E6.65946
G1 X46.739 Y49.63 E6.69193
G1 X46.356 Y49.986 E6.71802
G1 X45.823 Y50.465 E6.75377
G1 X45.546 Y50.718 E6.77249
G1 X45.149 Y51.061 E6.79866
G1 X44.531 Y51.548 E6.83792
G1 X43.903 Y51.976 E6.87583
G1 X43.755 Y52.066 E6.88447
G1 X43.303 Y52.319 E6.91032
G1 X43.081 Y52.426 E6.92261
G1 X42.6 Y52.676 E6.94966
G1 X41.804 Y53.019 E6.9929
G1 X41.714 Y53.056 E6.99775
G1 X40.984 Y53.337 E7.03678
G1 X40.544 Y53.503 E7.06024
G1 X39.698 Y53.783 E7.1047
G1 X39.277 Y53.895 E7.12643
G1 X38.608 Y54.04 E7.16059
G1 X38.188 Y54.111 E7.18184
G1 X37.585 Y54.188 E7.21216
G1 X36.851 Y54.252 E7.24892
G1 X36.206 Y54.262 E7.28111
G1 X35.86 Y54.252 E7.29837
G1 X35.094 Y54.19 E7.33672
G1 X34.358 Y54.058 E7.37402
G1 X33.612 Y53.868 E7.41243
G1 X33.295 Y53.767 E7.42903
G1 X32.664 Y53.551 E7.4623
G1 X32.382 Y53.44 E7.47742
G1 X31.77 Y53.166 E7.51087
G1 X31.561 Y53.061 E7.52254
G1 X30.662 Y52.527 E7.57471
G1 X30.252 Y52.273 E7.59877
G1 X29.605 Y51.858 E7.63712
G1 X29.086 Y51.456 E7.66987
G1 X28.511 Y50.944 E7.70828
G1 X27.941 Y50.312 E7.75074
G1 X27.88 Y50.236 E7.7556
G1 X27.43 Y49.612 E7.79399
G1 X26.94 Y48.721 E7.84472
G1 X26.842 Y48.51 E7.85632
G1 X26.554 Y47.797 E7.89469
G1 X26.316 Y46.939 E7.93911
G1 X26.266 Y46.705 E7.95105
G1 X26.145 Y45.946 E7.98939
G1 X26.103 Y45.178 E8.02777
G1 X26.12 Y44.685 E8.05238
G1 X26.009 Y44.532 E8.06181
G1 X25.618 Y43.93 E8.09762
G1 X25.433 Y43.613 E8.11593
G1 X24.958 Y42.642 E8.16986
G1 X24.872 Y42.428 E8.18137
G1 X24.622 Y41.701 E8.21972
G1 X24.439 Y40.89 E8.2612
G1 X24.393 Y40.615 E8.27511
G1 X24.306 Y39.851 E8.31347
G1 X24.299 Y39.082 E8.35184
G1 X24.371 Y38.316 E8.39022
G1 X24.49 Y37.694 E8.42182
G1 X24.541 Y37.478 E8.43289
G1 X24.756 Y36.739 E8.47129
G1 X24.814 Y36.592 E8.47917
G1 X24.783 Y36.016 E8.50795
G1 X24.78 Y35.797 E8.51888
G1 X24.809 Y35.029 E8.55722
G1 X24.918 Y34.267 E8.59562
G1 X25.106 Y33.521 E8.63401
G1 X25.37 Y32.799 E8.67236
G1 X25.606 Y32.248 E8.70226
G1 X25.93 Y31.551 E8.74061
G1 X26.325 Y30.891 E8.77899
G1 X26.786 Y30.275 E8.81737
G1 X27.309 Y29.711 E8.85574
G0 F3600 X27.913 Y29.7
G1 F1800 X28.088 Y29.55 E8.86724
G1 X28.682 Y29.094 E8.9046
G1 X29.32 Y28.705 E8.94188
G1 X29.905 Y28.395 E8.97491
G1 X30.116 Y28.282 E8.98686
G1 X30.794 Y27.965 E9.0242
G1 X31.427 Y27.74 E9.05771
G1 X32.498 Y27.478 E9.11272
G1 X32.701 Y27.445 E9.12298
G1 X33.591 Y27.358 E9.16759
G1 X33.861 Y27.349 E9.18107
G1 X34.433 Y27.353 E9.20961
G1 X34.639 Y27.363 E9.2199
G1 X35.384 Y27.439 E9.25726
G1 X35.965 Y27.143 E9.28979
G1 X36.578 Y26.863 E9.32341
G1 X36.763 Y26.781 E9.33351
G1 X37.573 Y26.481 E9.3766
G1 X37.768 Y26.422 E9.38677
G1 X38.393 Y26.264 E9.41893
G1 X38.662 Y26.209 E9.43263
G1 X39.402 Y26.098 E9.46996
G1 X40.156 Y26.068 E9.50761
G1 X40.46 Y26.072 E9.52278
G1 X41.207 Y26.121 E9.56012
G1 X42.111 Y26.291 E9.60601
G1 X42.394 Y26.366 E9.62062
G1 X43.061 Y26.565 E9.65535
G1 X43.599 Y26.783 E9.68431
G1 X44.097 Y27.009 E9.71159
G1 X44.779 Y27.365 E9.74997
G1 X44.981 Y27.485 E9.7617
G1 X45.603 Y27.901 E9.79903
G1 X46.177 Y28.381 E9.83636
G1 X46.696 Y28.919 E9.87365
G1 X47.302 Y29.73 E9.92416
G1 X47.437 Y29.941 E9.93666
G1 X47.806 Y30.592 E9.97399
G1 X48.142 Y31.384 E10.01691
G1 X48.19 Y31.52 E10.02411
G1 X48.452 Y32.473 E10.07342
G1 X48.552 Y32.988 E10.09959
G1 X48.588 Y33.205 E10.11057
G1 X48.67 Y33.949 E10.14791
G1 X48.673 Y34.697 E10.18523
G1 X48.583 Y35.524 E10.22673
G1 X48.492 Y36.029 E10.25233
G1 X48.447 Y36.26 E10.26407
G1 X48.566 Y36.481 E10.27659
G1 X48.939 Y37.301 E10.32154
G1 X49.226 Y38.059 E10.36197
G1 X49.303 Y38.277 E10.37351
G1 X49.498 Y38.924 E10.40722
G1 X49.664 Y39.693 E10.44647
G1 X49.658 Y39.694 E10.44677
G1 X49.792 Y40.546 E10.4898
G1 X49.82 Y40.874 E10.50623
G1 X49.843 Y41.621 E10.54351
G1 X49.792 Y42.363 E10.58062
G1 X49.726 Y42.951 E10.61014
G1 X49.643 Y43.457 E10.63572
G1 X49.594 Y43.701 E10.64814
G1 X49.429 Y44.359 E10.68198
G1 X49.21 Y45.007 E10.71611
G1 X48.976 Y45.575 E10.74675
G1 X48.694 Y46.158 E10.77906
G1 X48.445 Y46.625 E10.80547
G1 X48.108 Y47.21 E10.83915
G1 X47.793 Y47.707 E10.86851
G1 X47.465 Y48.181 E10.89726
G1 X47.077 Y48.672 E10.92848
G1 X46.884 Y48.895 E10.9432
G1 X46.461 Y49.343 E10.97394
G1 X46.093 Y49.685 E10.999
G1 X45.547 Y50.176 E11.03564
G1 X45.284 Y50.415 E11.05337
G1 X44.887 Y50.758 E11.07954
G1 X44.29 Y51.229 E11.11748
G1 X43.695 Y51.634 E11.15339
G1 X43.12 Y51.964 E11.18646
G1 X42.898 Y52.071 E11.19876
G1 X42.438 Y52.311 E11.22464
G1 X41.661 Y52.646 E11.26686
G1 X41.551 Y52.691 E11.27279
G1 X40.86 Y52.956 E11.30971
G1 X40.396 Y53.131 E11.33445
G1 X39.596 Y53.397 E11.37651
G1 X39.175 Y53.509 E11.39824
G1 X38.542 Y53.646 E11.43056
G1 X38.122 Y53.717 E11.45181
G1 X37.551 Y53.79 E11.48053
G1 X36.807 Y53.854 E11.51778
G1 X36.218 Y53.862 E11.54717
G1 X35.872 Y53.852 E11.56444
G1 X35.126 Y53.791 E11.60178
G1 X34.436 Y53.666 E11.63677
G1 X33.712 Y53.48 E11.67406
G1 X33.407 Y53.383 E11.69003
G1 X32.81 Y53.179 E11.7215
G1 X32.528 Y53.068 E11.73662
G1 X31.95 Y52.809 E11.76822
G1 X31.741 Y52.704 E11.77989
G1 X30.891 Y52.199 E11.82922
G1 X30.45 Y51.926 E11.85509
G1 X29.542 Y51.308 E11.90989
G1 X29.336 Y51.143 E11.92306
G1 X28.778 Y50.645 E11.96037
G1 X28.253 Y50.062 E11.99951
G1 X28.192 Y49.986 E12.00437
G1 X27.756 Y49.378 E12.0417
G1 X27.302 Y48.553 E12.08868
G1 X27.204 Y48.342 E12.10029
G1 X26.926 Y47.647 E12.13763
G1 X26.708 Y46.856 E12.17857
G1 X26.658 Y46.622 E12.1905
G1 X26.541 Y45.883 E12.22783
G1 X26.503 Y45.136 E12.26515
G1 X26.527 Y44.566 E12.29361
G1 X26.334 Y44.298 E12.31009
G1 X25.963 Y43.728 E12.34402
G1 X25.778 Y43.411 E12.36233
G1 X25.329 Y42.493 E12.41331
G1 X25.243 Y42.279 E12.42482
G1 X25.001 Y41.571 E12.46215
G1 X24.834 Y40.824 E12.50034
G1 X24.788 Y40.549 E12.51425
G1 X24.704 Y39.806 E12.55155
G1 X24.7 Y39.057 E12.58892
G1 X24.776 Y38.313 E12.62623
G1 X24.879 Y37.785 E12.65307
G1 X24.93 Y37.569 E12.66414
G1 X25.141 Y36.852 E12.70143
G1 X25.224 Y36.64 E12.71279
G1 X25.21 Y36.543 E12.71768
G1 X25.183 Y36.011 E12.74426
G1 X25.18 Y35.792 E12.75518
G1 X25.209 Y35.044 E12.79253
G1 X25.319 Y34.304 E12.82985
G1 X25.506 Y33.58 E12.86716
G1 X25.77 Y32.88 E12.90448
G1 X25.984 Y32.379 E12.93166
G1 X26.303 Y31.702 E12.969
G1 X26.692 Y31.063 E13.00632
G1 X27.146 Y30.469 E13.04362
G1 X27.913 Y29.7 E13.09781
G0 F3600 X27.506 Y30.665
G1 F1800 X28.174 Y30.004 E13.14469
G1 X28.349 Y29.854 E13.15619
G1 X28.925 Y29.412 E13.19241
G1 X29.547 Y29.037 E13.22865
G1 X30.094 Y28.748 E13.25951
G1 X30.305 Y28.635 E13.27146
G1 X30.963 Y28.328 E13.30768
G1 X31.553 Y28.119 E13.33891
G1 X32.562 Y27.873 E13.39072
G1 X32.765 Y27.84 E13.40098
G1 X33.604 Y27.758 E13.44304
G1 X33.874 Y27.749 E13.45652
G1 X34.414 Y27.753 E13.48346
G1 X34.62 Y27.763 E13.49375
G1 X35.342 Y27.838 E13.52996
G1 X35.453 Y27.862 E13.53563
G1 X35.934 Y27.601 E13.56293
G1 X36.498 Y27.353 E13.59367
G1 X36.926 Y27.147 E13.61737
G1 X37.689 Y26.864 E13.65797
G1 X37.884 Y26.805 E13.66813
G1 X38.473 Y26.656 E13.69844
G1 X38.742 Y26.601 E13.71214
G1 X39.46 Y26.495 E13.74835
G1 X40.151 Y26.468 E13.78285
G1 X40.455 Y26.472 E13.79802
G1 X41.18 Y26.521 E13.83427
G1 X42.011 Y26.679 E13.87647
G1 X42.295 Y26.753 E13.89111
G1 X42.947 Y26.949 E13.92508
G1 X43.433 Y27.147 E13.95126
G1 X43.931 Y27.373 E13.97855
G1 X44.575 Y27.709 E14.01479
G1 X44.777 Y27.829 E14.02651
G1 X45.38 Y28.234 E14.06275
G1 X45.935 Y28.702 E14.09897
G1 X46.435 Y29.229 E14.13521
G1 X46.965 Y29.946 E14.17969
G1 X47.1 Y30.157 E14.19219
G1 X47.458 Y30.789 E14.22843
G1 X47.765 Y31.517 E14.26785
G1 X47.813 Y31.653 E14.27504
G1 X48.06 Y32.551 E14.32151
G1 X48.157 Y33.054 E14.34706
G1 X48.193 Y33.271 E14.35804
G1 X48.272 Y33.993 E14.39427
G1 X48.272 Y34.719 E14.43049
G1 X48.189 Y35.457 E14.46754
G1 X48.09 Y36.005 E14.49533
G1 X48.024 Y36.317 E14.51124
G1 X48.213 Y36.67 E14.53121
G1 X48.565 Y37.443 E14.57359
G1 X48.849 Y38.192 E14.61355
G1 X48.926 Y38.41 E14.62509
G1 X49.109 Y39.021 E14.65691
G1 X49.271 Y39.771 E14.69519
G1 X49.393 Y40.58 E14.73601
G1 X49.421 Y40.908 E14.75243
G1 X49.443 Y41.634 E14.78867
G1 X49.394 Y42.326 E14.82328
G1 X49.329 Y42.901 E14.85215
G1 X49.202 Y43.622 E14.88867
G1 X49.046 Y44.242 E14.92057
G1 X48.834 Y44.871 E14.95368
G1 X48.613 Y45.407 E14.98261
G1 X48.341 Y45.97 E15.0138
G1 X48.092 Y46.437 E15.04021
G1 X47.763 Y47.007 E15.07304
G1 X47.461 Y47.484 E15.10121
G1 X47.14 Y47.947 E15.12931
G1 X46.775 Y48.41 E15.15873
G1 X46.582 Y48.633 E15.17344
G1 X46.182 Y49.055 E15.20245
G1 X45.831 Y49.383 E15.22642
G1 X45.45 Y49.715 E15.25163
G1 X45.023 Y50.112 E15.28072
G1 X44.626 Y50.455 E15.30689
G1 X44.048 Y50.91 E15.34359
G1 X43.487 Y51.292 E15.37745
G1 X42.936 Y51.608 E15.40914
G1 X42.276 Y51.945 E15.44611
G1 X41.518 Y52.272 E15.4873
G1 X41.388 Y52.326 E15.49432
G1 X40.737 Y52.576 E15.52911
G1 X40.247 Y52.76 E15.55523
G1 X39.493 Y53.01 E15.59486
G1 X39.072 Y53.122 E15.61659
G1 X38.475 Y53.252 E15.64707
G1 X38.055 Y53.323 E15.66833
G1 X37.517 Y53.391 E15.69538
G1 X36.764 Y53.456 E15.73309
G1 X36.229 Y53.462 E15.75978
G1 X35.883 Y53.452 E15.77705
G1 X35.16 Y53.391 E15.81325
G1 X34.515 Y53.274 E15.84595
